justvector/friendfeed.svg

<?xml version="1.0" encoding="iso-8859-1"?>
<!-- Generator: Adobe Illustrator 15.0.0, SVG Export Plug-In . SVG Version: 6.00 Build 0)  -->
<!DOCTYPE svg PUBLIC "-//W3C//DTD SVG 1.1//EN" "http://www.w3.org/Graphics/SVG/1.1/DTD/svg11.dtd">
<svg version="1.1" id="Icons" xmlns="http://www.w3.org/2000/svg" xmlns:xlink="http://www.w3.org/1999/xlink" x="0px" y="0px"
	 width="100px" height="100px" viewBox="0 0 100 100" style="enable-background:new 0 0 100 100;" xml:space="preserve">
<path id="FriendFeed_1_" d="M95,22.133H81.615c-2.593,0-5.479,3.429-5.479,8.095v7.908h15.808v15.812H76.136V93.5H60.328V53.947
	h-7.905h-7.902h-7.905V93.5H20.808V53.947H5V38.136h15.808v-7.908c0-13.084,9.549-23.728,21.288-23.728h13.384v15.633H42.096
	c-2.594,0-5.48,3.429-5.48,8.095v7.908h7.905h7.902h7.905v-7.908c0-13.084,9.548-23.728,21.287-23.728H95V22.133z"/>
</svg>

<?xml version="1.0" encoding="UTF-8" standalone="no"?>
<!DOCTYPE svg PUBLIC "-//W3C//DTD SVG 1.1//EN" "http://www.w3.org/Graphics/SVG/1.1/DTD/svg11.dtd">
<svg width="100%" height="100%" viewBox="0 0 100 100" version="1.1" xmlns="http://www.w3.org/2000/svg" xmlns:xlink="http://www.w3.org/1999/xlink" xml:space="preserve" xmlns:serif="http://www.serif.com/" style="fill-rule:evenodd;clip-rule:evenodd;stroke-linejoin:round;stroke-miterlimit:2;">
    <path id="FriendFeed_1_" d="M95,22.133L81.615,22.133C79.022,22.133 76.136,25.562 76.136,30.228L76.136,38.136L91.944,38.136L91.944,53.948L76.136,53.948L60.328,53.947L5,53.947L5,38.136L20.808,38.136L20.808,30.228C20.808,17.144 30.357,6.5 42.096,6.5L55.48,6.5L55.48,22.133L42.096,22.133C39.502,22.133 36.616,25.562 36.616,30.228L36.616,38.136L60.328,38.136L60.328,30.228C60.328,17.144 69.876,6.5 81.615,6.5L95,6.5L95,22.133Z" style="fill-rule:nonzero;"/>
</svg>
